icons/bhi_comment.svg

<svg xmlns="http://www.w3.org/2000/svg" viewBox="0 0 512 512" enable-background="new 0 0 512 512"><path fill="#010101" d="M512 51.2c0-28.2-23-51.2-51.2-51.2h-409.6c-28.2 0-51.2 23-51.2 51.2v307.2c0 28.2 23 51.2 51.2 51.2h358.4l102.4 102.4v-460.8zm-102.4 256h-307.2v-51.2h307.2v51.2zm0-76.8h-307.2v-51.2h307.2v51.2zm0-76.8h-307.2v-51.2h307.2v51.2z"/></svg>

<?xml version="1.0" encoding="utf-8"?>
<!-- Generator: Adobe Illustrator 19.2.0, SVG Export Plug-In . SVG Version: 6.00 Build 0)  -->
<svg version="1.1" id="Layer_1" xmlns="http://www.w3.org/2000/svg" xmlns:xlink="http://www.w3.org/1999/xlink" x="0px" y="0px"
	 viewBox="0 0 512 512" enable-background="new 0 0 512 512" xml:space="preserve">
<path fill="#010101" d="M512,51.2C512,23,489,0,460.8,0H51.2C23,0,0,23,0,51.2v307.2c0,28.2,23,51.2,51.2,51.2h358.4L512,512V51.2z
	 M409.6,307.2H102.4V256h307.2V307.2z M409.6,230.4H102.4v-51.2h307.2V230.4z M409.6,153.6H102.4v-51.2h307.2V153.6z"/>
</svg>
